src/rounded/icons/fi-rr-notebook.svg

<svg id="Layer_1" height="512" viewBox="0 0 24 24" width="512" xmlns="http://www.w3.org/2000/svg" data-name="Layer 1"><path d="m19 3.022c0-.008 0-.014 0-.022v-2a1 1 0 0 0 -2 0v1.1a5 5 0 0 0 -1-.1h-1v-1a1 1 0 0 0 -2 0v1h-2v-1a1 1 0 0 0 -2 0v1h-1a5 5 0 0 0 -1 .1v-1.1a1 1 0 0 0 -2 0v2 .022a4.979 4.979 0 0 0 -2 3.978v12a5.006 5.006 0 0 0 5 5h8a5.006 5.006 0 0 0 5-5v-12a4.979 4.979 0 0 0 -2-3.978zm0 15.978a3 3 0 0 1 -3 3h-8a3 3 0 0 1 -3-3v-12a3 3 0 0 1 3-3h8a3 3 0 0 1 3 3zm-2-11a1 1 0 0 1 -1 1h-8a1 1 0 0 1 0-2h8a1 1 0 0 1 1 1zm0 4a1 1 0 0 1 -1 1h-8a1 1 0 0 1 0-2h8a1 1 0 0 1 1 1zm-4 4a1 1 0 0 1 -1 1h-4a1 1 0 0 1 0-2h4a1 1 0 0 1 1 1z"/></svg>

<svg id="Layer_1" data-name="Layer 1" xmlns="http://www.w3.org/2000/svg" viewBox="0 0 24 24"><path d="M19,3.022c0-.008,0-.014,0-.022V1a1,1,0,0,0-2,0V2.1A5,5,0,0,0,16,2H15V1a1,1,0,0,0-2,0V2H11V1A1,1,0,0,0,9,1V2H8a5,5,0,0,0-1,.1V1A1,1,0,0,0,5,1V3c0,.008,0,.014,0,.022A4.979,4.979,0,0,0,3,7V19a5.006,5.006,0,0,0,5,5h8a5.006,5.006,0,0,0,5-5V7A4.979,4.979,0,0,0,19,3.022ZM19,19a3,3,0,0,1-3,3H8a3,3,0,0,1-3-3V7A3,3,0,0,1,8,4h8a3,3,0,0,1,3,3ZM17,8a1,1,0,0,1-1,1H8A1,1,0,0,1,8,7h8A1,1,0,0,1,17,8Zm0,4a1,1,0,0,1-1,1H8a1,1,0,0,1,0-2h8A1,1,0,0,1,17,12Zm-4,4a1,1,0,0,1-1,1H8a1,1,0,0,1,0-2h4A1,1,0,0,1,13,16Z"/></svg>
